public/images/sw-skills/opengl.svg

<?xml version="1.0" encoding="UTF-8" standalone="no"?>
<!DOCTYPE svg PUBLIC "-//W3C//DTD SVG 1.1//EN" "http://www.w3.org/Graphics/SVG/1.1/DTD/svg11.dtd">
<svg width="100%" height="100%" viewBox="0 0 2400 1600" version="1.1" xmlns="http://www.w3.org/2000/svg" xmlns:xlink="http://www.w3.org/1999/xlink" xml:space="preserve" xmlns:serif="http://www.serif.com/" style="fill-rule:evenodd;clip-rule:evenodd;stroke-linejoin:round;stroke-miterlimit:2;">
    <rect x="0" y="0" width="2400" height="1600" style="fill:rgb(147,214,255);"/>
    <g transform="matrix(1.83055,0,0,1.83791,101.513,341.259)">
        <path d="M182,212C185.85,200.2 191.63,189.8 199.3,180.7C207,171.63 216.6,164.4 228.1,159C239.6,153.6 252.9,150.89 268.1,150.89C283.3,150.89 296.7,153.6 308.1,159C319.6,164.4 329.2,171.6 336.9,180.7C344.6,189.8 350.4,200.2 354.2,212C358.05,223.8 359.98,236 359.98,248.7C359.98,261.4 358.05,273.7 354.2,285.5C350.35,297.3 344.57,307.7 336.9,316.8C329.2,325.87 319.6,333.1 308.1,338.4C296.6,343.71 283.3,346.38 268.1,346.38C252.9,346.38 239.5,343.72 228.1,338.4C216.6,333.08 207,325.9 199.3,316.8C191.6,307.73 185.8,297.3 182,285.5C178.15,273.7 176.22,261.5 176.22,248.7C176.22,235.9 178.15,223.7 182,212ZM205.4,276.7C207.91,285.86 211.86,294.1 217.2,301.4C222.58,308.73 229.5,314.6 237.9,319.1C246.33,323.55 256.4,325.77 268,325.77C279.7,325.77 289.7,323.55 298.1,319.1C306.53,314.65 313.4,308.8 318.8,301.4C324.18,294.07 328.12,285.8 330.6,276.7C333.11,267.53 334.37,258.2 334.37,248.8C334.37,239.4 333.11,230.1 330.6,220.9C328.09,211.7 324.14,203.5 318.8,196.2C313.42,188.87 306.5,183 298.1,178.5C289.67,174.05 279.6,171.82 268,171.82C256.3,171.82 246.3,174.05 237.9,178.5C229.47,182.95 222.6,188.8 217.2,196.2C211.82,203.54 207.87,211.8 205.4,220.9C202.89,230.06 201.64,239.4 201.64,248.8C201.64,258.2 202.89,267.5 205.4,276.7Z" style="fill:rgb(85,134,164);fill-rule:nonzero;"/>
    </g>
    <g transform="matrix(1.83055,0,0,1.83791,101.513,341.259)">
        <path d="M398,223L398,239.1L398.404,239.1C401.704,232.49 406.884,227.7 413.904,224.7C420.974,221.7 428.704,220.2 437.204,220.2C446.624,220.2 454.804,221.89 461.804,225.27C468.794,228.65 474.604,233.21 479.204,238.97C483.834,244.73 487.324,251.37 489.704,258.87C492.064,266.39 493.244,274.37 493.244,282.77C493.244,291.21 492.104,299.17 489.824,306.77C487.544,314.29 484.094,320.87 479.424,326.47C474.794,332.07 469.024,336.47 462.024,339.67C455.024,342.89 446.924,344.51 437.624,344.51C434.634,344.51 431.304,344.203 427.624,343.591C423.934,342.97 420.284,341.981 416.624,340.591C413.014,339.211 409.594,337.321 406.324,334.941C403.104,332.561 400.394,329.601 398.204,326.061L397.8,326.061L397.8,387.561L377.6,387.561L377.6,222.561L398,223ZM469.7,265.3C468.21,260.01 465.94,255.3 462.89,251.1C459.83,246.96 455.91,243.66 451.09,241.2C446.31,238.74 440.69,237.52 434.29,237.52C427.55,237.52 421.79,238.83 417.09,241.44C412.39,244.05 408.55,247.46 405.59,251.64C402.61,255.86 400.46,260.66 399.13,266.04C397.8,271.41 397.13,276.84 397.13,282.34C397.13,288.18 397.83,293.84 399.25,299.24C400.66,304.69 402.89,309.44 405.95,313.64C409,317.78 412.96,321.12 417.85,323.64C422.71,326.17 428.55,327.44 435.45,327.44C442.34,327.44 448.05,326.14 452.75,323.53C457.45,320.92 461.1,317.47 463.95,313.13C466.77,308.84 468.8,303.93 470.06,298.43C471.31,292.9 471.94,287.23 471.94,281.43C471.938,275.91 471.193,270.53 469.7,265.23L469.7,265.3Z" style="fill:rgb(85,134,164);fill-rule:nonzero;"/>
    </g>
    <g transform="matrix(1.83055,0,0,1.83791,101.513,341.259)">
        <path d="M596,335C586.87,341.75 575.4,345.1 561.5,345.1C551.74,345.1 543.3,343.57 536.1,340.5C528.94,337.43 522.9,333.13 518,327.6C513.12,322.07 509.46,315.5 507,307.8C504.56,300.12 503.19,291.8 502.87,282.7C502.87,273.64 504.28,265.4 507.12,257.8C509.95,250.28 513.93,243.8 519.02,238.2C524.14,232.67 530.22,228.38 537.22,225.3C544.23,222.23 551.92,220.69 560.22,220.69C571.12,220.69 580.12,222.89 587.32,227.27C594.49,231.65 600.22,237.23 604.62,243.97C608.95,250.74 611.95,258.17 613.6,266.07C615.25,274.07 615.92,281.67 615.61,288.87L524.31,288.87C524.152,294.08 524.777,299.07 526.19,303.67C527.603,308.27 529.88,312.48 533.02,316.07C536.16,319.67 540.17,322.54 545.02,324.69C549.89,326.84 555.62,327.91 562.22,327.91C570.7,327.91 577.62,325.99 583.02,322.15C588.44,318.31 592.01,312.47 593.72,304.65L613.52,304.65C610.84,317.95 604.94,328.05 595.82,334.75L596,335ZM591.11,258.6C589.31,254.47 586.88,250.9 583.82,247.9C580.76,244.92 577.15,242.54 573.02,240.78C568.86,239.02 564.27,238.13 559.22,238.13C554.04,238.13 549.37,239.012 545.22,240.78C541.06,242.54 537.49,244.96 534.52,248.02C531.54,251.08 529.19,254.65 527.46,258.72C525.73,262.78 524.71,267.11 524.4,271.72L594.3,271.72C593.983,267.12 592.92,262.76 591.12,258.62L591.11,258.6Z" style="fill:rgb(85,134,164);fill-rule:nonzero;"/>
    </g>
    <g transform="matrix(1.83055,0,0,1.83791,101.513,341.259)">
        <path d="M648,223L648,241.9L648.379,241.9C656.749,227.5 669.979,220.2 688.179,220.2C696.239,220.2 702.979,221.28 708.279,223.43C713.649,225.58 717.999,228.58 721.279,232.42C724.599,236.26 726.929,240.83 728.269,246.12C729.609,251.42 730.279,257.32 730.279,263.72L730.279,342.12L710.079,342.12L710.079,261.52C710.079,254.15 707.869,248.32 703.459,244.02C699.039,239.72 692.959,237.57 685.259,237.57C679.109,237.57 673.759,238.496 669.259,240.34C664.769,242.18 661.019,244.79 658.059,248.17C655.069,251.55 652.819,255.5 651.329,260.07C649.829,264.6 649.079,269.56 649.079,274.97L649.079,342.27L628.879,342.27L628.879,223.27L648,223Z" style="fill:rgb(85,134,164);fill-rule:nonzero;"/>
    </g>
    <g transform="matrix(1.83055,0,0,1.83791,101.513,341.259)">
        <path d="M870,341C860.88,344.76 851.7,346.64 842.4,346.64C827.7,346.64 814.5,344.14 802.8,339.16C791.1,334.17 781.2,327.26 773.2,318.56C765.15,309.81 759,299.56 754.7,287.66C750.41,275.86 748.26,263.06 748.26,249.46C748.26,235.46 750.4,222.46 754.68,210.46C758.96,198.46 765.08,187.96 773.18,179.06C781.21,170.13 791.08,163.16 802.78,158.06C814.48,152.98 827.68,150.44 842.38,150.44C852.21,150.44 861.78,151.89 870.98,154.78C880.19,157.68 888.48,161.93 895.88,167.58C903.3,173.19 909.38,180.08 914.28,188.38C919.11,196.61 922.06,206.08 923.14,216.68L882.94,216.68C880.43,206.18 875.6,198.38 868.44,193.08C861.28,187.84 852.64,185.22 842.44,185.22C832.96,185.22 824.94,187.01 818.34,190.6C811.74,194.19 806.34,199.01 802.24,205C798.12,211.04 795.13,217.9 793.26,225.6C791.38,233.3 790.44,241.3 790.44,249.5C790.44,257.38 791.379,265 793.26,272.5C795.14,279.94 798.14,286.6 802.26,292.6C806.38,298.55 811.75,303.3 818.36,306.9C824.98,310.49 833.06,312.28 842.56,312.28C856.56,312.28 867.26,308.84 874.96,301.98C882.57,295.1 886.96,285.08 888.26,272.08L845.86,272.08L845.86,241.28L926.26,241.28L926.26,342.28L899.56,342.28L895.28,321.08C887.77,330.52 879.48,337.08 870.28,340.88L870,341Z" style="fill:rgb(85,134,164);fill-rule:nonzero;"/>
    </g>
    <g transform="matrix(1.83055,0,0,1.83791,101.513,341.259)">
        <path d="M995,156L995,308L1088.4,308L1088.4,342.7L953.4,342.7L953.4,155.7L995,156Z" style="fill:rgb(85,134,164);fill-rule:nonzero;"/>
    </g>
    <g transform="matrix(1.83055,0,0,1.83791,101.513,341.259)">
        <path d="M796,366C731.7,404.2 635,426 528,426C334,426 178,347.2 178,250C178,152.8 335,74 528,74C636,74 732,96.1 797,134.6C726.8,70.2 601,24.6 457,24.6C237,24.565 58,125.6 58,249.6C57.981,373.6 237,474.6 457,474.6C600,474.624 726,429.5 796,365.6L796,366Z" style="fill:rgb(85,134,164);fill-rule:nonzero;"/>
    </g>
    <g transform="matrix(1.83791,0,0,1.83791,89.7505,341.259)">
        <path d="M1144,325C1144,328.14 1143.21,331.07 1141.64,333.78C1140.07,336.49 1137.93,338.63 1135.22,340.19C1132.51,341.75 1129.58,342.53 1126.44,342.53C1123.31,342.53 1120.4,341.749 1117.68,340.19C1114.97,338.63 1112.83,336.49 1111.26,333.78C1109.69,331.07 1108.9,328.14 1108.9,325C1108.9,321.87 1109.68,318.95 1111.26,316.23C1112.83,313.51 1114.97,311.37 1117.68,309.81C1120.39,308.25 1123.31,307.47 1126.44,307.47C1129.58,307.47 1132.51,308.251 1135.22,309.81C1137.93,311.37 1140.07,313.51 1141.64,316.23C1143.21,318.95 1144,321.87 1144,325ZM1140.6,325C1140.6,321.09 1139.22,317.76 1136.45,315C1133.68,312.23 1130.35,310.85 1126.45,310.85C1122.54,310.85 1119.21,312.23 1116.45,315C1113.68,317.77 1112.3,321.1 1112.3,325C1112.3,328.9 1113.68,332.24 1116.45,335C1119.22,337.77 1122.55,339.15 1126.45,339.15C1130.36,339.15 1133.69,337.77 1136.45,335C1139.21,332.23 1140.6,328.9 1140.6,325ZM1118.5,315.62L1126.89,315.62C1129.26,315.62 1130.99,316.098 1132.05,317.06C1133.11,318.017 1133.65,319.3 1133.65,320.91C1133.65,322.17 1133.24,323.25 1132.43,324.17C1131.62,325.089 1130.34,325.76 1128.59,326.17C1129.31,326.446 1129.84,326.737 1130.18,327.043C1130.65,327.473 1131.15,328.103 1131.67,328.953C1131.7,329.014 1132.71,330.823 1134.7,334.373L1129.18,334.373C1127.39,330.803 1126.18,328.673 1125.57,327.973C1124.96,327.277 1124.34,326.923 1123.73,326.923C1123.59,326.923 1123.4,326.946 1123.16,326.992L1123.16,334.372L1118.49,334.372L1118.5,315.62ZM1123.17,323.57L1125.19,323.57C1126.54,323.57 1127.49,323.352 1128.04,322.916C1128.59,322.478 1128.87,321.916 1128.87,321.226C1128.87,320.537 1128.6,319.976 1128.07,319.536C1127.55,319.099 1126.64,318.882 1125.37,318.882L1123.16,318.882L1123.17,323.57Z" style="fill:rgb(85,134,164);fill-rule:nonzero;"/>
    </g>
</svg>

<svg xmlns="http://www.w3.org/2000/svg" xml:space="preserve" style="fill-rule:evenodd;clip-rule:evenodd;stroke-linejoin:round;stroke-miterlimit:2" viewBox="0 0 2400 1600"><path d="M0 0h2400v1600H0z" style="fill:#93d6ff"/><path d="M182 212c3.85-11.8 9.63-22.2 17.3-31.3 7.7-9.07 17.3-16.3 28.8-21.7s24.8-8.11 40-8.11 28.6 2.71 40 8.11c11.5 5.4 21.1 12.6 28.8 21.7s13.5 19.5 17.3 31.3c3.85 11.8 5.78 24 5.78 36.7s-1.93 25-5.78 36.8-9.63 22.2-17.3 31.3c-7.7 9.07-17.3 16.3-28.8 21.6-11.5 5.31-24.8 7.98-40 7.98s-28.6-2.66-40-7.98c-11.5-5.32-21.1-12.5-28.8-21.6-7.7-9.07-13.5-19.5-17.3-31.3-3.85-11.8-5.78-24-5.78-36.8s1.93-25 5.78-36.7m23.4 64.7c2.51 9.16 6.46 17.4 11.8 24.7 5.38 7.33 12.3 13.2 20.7 17.7 8.43 4.45 18.5 6.67 30.1 6.67 11.7 0 21.7-2.22 30.1-6.67 8.43-4.45 15.3-10.3 20.7-17.7 5.38-7.33 9.32-15.6 11.8-24.7 2.51-9.17 3.77-18.5 3.77-27.9s-1.26-18.7-3.77-27.9-6.46-17.4-11.8-24.7c-5.38-7.33-12.3-13.2-20.7-17.7-8.43-4.45-18.5-6.68-30.1-6.68-11.7 0-21.7 2.23-30.1 6.68-8.43 4.45-15.3 10.3-20.7 17.7-5.38 7.34-9.33 15.6-11.8 24.7-2.51 9.16-3.76 18.5-3.76 27.9s1.25 18.7 3.76 27.9M398 223v16.1h.404c3.3-6.61 8.48-11.4 15.5-14.4 7.07-3 14.8-4.5 23.3-4.5 9.42 0 17.6 1.69 24.6 5.07 6.99 3.38 12.8 7.94 17.4 13.7 4.63 5.76 8.12 12.4 10.5 19.9 2.36 7.52 3.54 15.5 3.54 23.9 0 8.44-1.14 16.4-3.42 24-2.28 7.52-5.73 14.1-10.4 19.7-4.63 5.6-10.4 10-17.4 13.2-7 3.22-15.1 4.84-24.4 4.84-2.99 0-6.32-.307-10-.919a58 58 0 0 1-11-3c-3.61-1.38-7.03-3.27-10.3-5.65-3.22-2.38-5.93-5.34-8.12-8.88h-.404v61.5h-20.2v-165zm71.7 42.3c-1.49-5.29-3.76-10-6.81-14.2-3.06-4.14-6.98-7.44-11.8-9.9-4.78-2.46-10.4-3.68-16.8-3.68-6.74 0-12.5 1.31-17.2 3.92s-8.54 6.02-11.5 10.2c-2.98 4.22-5.13 9.02-6.46 14.4-1.33 5.37-2 10.8-2 16.3 0 5.84.7 11.5 2.12 16.9 1.41 5.45 3.64 10.2 6.7 14.4 3.05 4.14 7.01 7.48 11.9 10 4.86 2.53 10.7 3.8 17.6 3.8 6.89 0 12.6-1.3 17.3-3.91s8.35-6.06 11.2-10.4c2.82-4.29 4.85-9.2 6.11-14.7a77 77 0 0 0 1.88-17 59.4 59.4 0 0 0-2.24-16.2zM596 335c-9.13 6.75-20.6 10.1-34.5 10.1-9.76 0-18.2-1.53-25.4-4.6-7.16-3.07-13.2-7.37-18.1-12.9-4.88-5.53-8.54-12.1-11-19.8-2.44-7.68-3.81-16-4.13-25.1 0-9.06 1.41-17.3 4.25-24.9 2.83-7.52 6.81-14 11.9-19.6 5.12-5.53 11.2-9.82 18.2-12.9 7.01-3.07 14.7-4.61 23-4.61 10.9 0 19.9 2.2 27.1 6.58 7.17 4.38 12.9 9.96 17.3 16.7 4.33 6.77 7.33 14.2 8.98 22.1q2.475 12 2.01 22.8h-91.3c-.158 5.21.467 10.2 1.88 14.8s3.69 8.81 6.83 12.4c3.14 3.6 7.15 6.47 12 8.62 4.87 2.15 10.6 3.22 17.2 3.22 8.48 0 15.4-1.92 20.8-5.76 5.42-3.84 8.99-9.68 10.7-17.5h19.8c-2.68 13.3-8.58 23.4-17.7 30.1zm-4.89-76.4c-1.8-4.13-4.23-7.7-7.29-10.7-3.06-2.98-6.67-5.36-10.8-7.12-4.16-1.76-8.75-2.65-13.8-2.65-5.18 0-9.85.882-14 2.65-4.16 1.76-7.73 4.18-10.7 7.24-2.98 3.06-5.33 6.63-7.06 10.7-1.73 4.06-2.75 8.39-3.06 13h69.9c-.317-4.6-1.38-8.96-3.18-13.1zM648 223v18.9h.379c8.37-14.4 21.6-21.7 39.8-21.7 8.06 0 14.8 1.08 20.1 3.23 5.37 2.15 9.72 5.15 13 8.99 3.32 3.84 5.65 8.41 6.99 13.7 1.34 5.3 2.01 11.2 2.01 17.6v78.4h-20.2v-80.6c0-7.37-2.21-13.2-6.62-17.5-4.42-4.3-10.5-6.45-18.2-6.45-6.15 0-11.5.926-16 2.77-4.49 1.84-8.24 4.45-11.2 7.83-2.99 3.38-5.24 7.33-6.73 11.9-1.5 4.53-2.25 9.49-2.25 14.9v67.3h-20.2v-119zm222 118c-9.12 3.76-18.3 5.64-27.6 5.64-14.7 0-27.9-2.5-39.6-7.48-11.7-4.99-21.6-11.9-29.6-20.6-8.05-8.75-14.2-19-18.5-30.9-4.29-11.8-6.44-24.6-6.44-38.2q0-21 6.42-39c4.28-12 10.4-22.5 18.5-31.4 8.03-8.93 17.9-15.9 29.6-21q17.55-7.62 39.6-7.62c9.83 0 19.4 1.45 28.6 4.34 9.21 2.9 17.5 7.15 24.9 12.8 7.42 5.61 13.5 12.5 18.4 20.8 4.83 8.23 7.78 17.7 8.86 28.3h-40.2c-2.51-10.5-7.34-18.3-14.5-23.6-7.16-5.24-15.8-7.86-26-7.86-9.48 0-17.5 1.79-24.1 5.38s-12 8.41-16.1 14.4c-4.12 6.04-7.11 12.9-8.98 20.6-1.88 7.7-2.82 15.7-2.82 23.9 0 7.88.939 15.5 2.82 23 1.88 7.44 4.88 14.1 9 20.1 4.12 5.95 9.49 10.7 16.1 14.3 6.62 3.59 14.7 5.38 24.2 5.38 14 0 24.7-3.44 32.4-10.3 7.61-6.88 12-16.9 13.3-29.9h-42.4v-30.8h80.4v101h-26.7l-4.28-21.2c-7.51 9.44-15.8 16-25 19.8zm125-185v152h93.4v34.7h-135v-187z" style="fill:#5586a4;fill-rule:nonzero" transform="matrix(1.83055 0 0 1.83791 101.513 341.259)"/><path d="M796 366c-64.3 38.2-161 60-268 60-194 0-350-78.8-350-176S335 74 528 74c108 0 204 22.1 269 60.6-70.2-64.4-196-110-340-110-220-.035-399 101-399 225-.019 124 179 225 399 225 143 .024 269-45.1 339-109z" style="fill:#5586a4;fill-rule:nonzero" transform="matrix(1.83055 0 0 1.83791 101.513 341.259)"/><path d="M1144 325c0 3.14-.79 6.07-2.36 8.78s-3.71 4.85-6.42 6.41-5.64 2.34-8.78 2.34c-3.13 0-6.04-.781-8.76-2.34-2.71-1.56-4.85-3.7-6.42-6.41a17.23 17.23 0 0 1-2.36-8.78c0-3.13.78-6.05 2.36-8.77q2.355-4.08 6.42-6.42t8.76-2.34c3.14 0 6.07.781 8.78 2.34q4.065 2.34 6.42 6.42c1.57 2.72 2.36 5.64 2.36 8.77m-3.4 0c0-3.91-1.38-7.24-4.15-10-2.77-2.77-6.1-4.15-10-4.15-3.91 0-7.24 1.38-10 4.15-2.77 2.77-4.15 6.1-4.15 10s1.38 7.24 4.15 10c2.77 2.77 6.1 4.15 10 4.15 3.91 0 7.24-1.38 10-4.15s4.15-6.1 4.15-10m-22.1-9.38h8.39c2.37 0 4.1.478 5.16 1.44 1.06.957 1.6 2.24 1.6 3.85 0 1.26-.41 2.34-1.22 3.26s-2.09 1.59-3.84 2q1.08.414 1.59.873c.47.43.97 1.06 1.49 1.91q.045.093 3.03 5.42h-5.52c-1.79-3.57-3-5.7-3.61-6.4-.61-.696-1.23-1.05-1.84-1.05q-.21 0-.57.069v7.38h-4.67zm4.67 7.95h2.02q2.025 0 2.85-.654c.55-.438.83-1 .83-1.69 0-.689-.27-1.25-.8-1.69-.52-.437-1.43-.654-2.7-.654h-2.21z" style="fill:#5586a4;fill-rule:nonzero" transform="translate(89.75 341.259)scale(1.83791)"/></svg>
